X:189
T:D'une amour quoie et serie
T:Les miracles de Notre-Dame
C:Gautier de Coincy (1177-1236)
M:6/8
L:1/8
Q:3/8=72
% Last note suggests Dorian mode tune
K:Cmaj
V:1
d3 dG2 | d3 edc | BB/2A/2G AA2 | GGF ABA | 
G/2A/2GF G3 | z3 d3 | dG2 d3 | edc BB/2A/2G | 
AA2 GGF | ABA G/2A/2GF | G3 z3 | def gg/2f/2e | 
def2<g2 | g3 e3 | fg2 fed | B3 cd2 | 
d3 z3 | GG/2A/2B2<d2 | edc2<B2 | BAG2<A2 | 
F3 A3 | B3 c3 | BA2 BBG | G3 z3 | 
d3 d3 | dG2 d3 | e3 f3 | edc de2 | 
d2c BA2 | B3 c3 | BAG Bc2 | d3 d3 |]

 





